images/iconography/naming-do1.svg

<svg xmlns="http://www.w3.org/2000/svg" width="300" height="96" style="background:#fff" viewBox="0 0 300 96">
  <g fill="#0C0C0D" fill-rule="evenodd" transform="translate(63 32)">
    <path fill-opacity=".8" d="M31.485573,11.8798 C31.2296362,11.1138 30.5757976,10.5518 29.7859925,10.4138 L21.6200081,8.9558 L17.7689586,1.2218 C17.3950509,0.4678 16.641237,0.0018 15.7994447,0.0018 C14.959652,0.0018 14.2038386,0.4678 13.8319304,1.2198 L9.9808809,8.9558 L1.82089497,10.4138 C1.0250914,10.5518 0.371252779,11.1138 0.11531595,11.8798 C-0.142620385,12.6458 0.0393347043,13.4898 0.589198985,14.0778 L6.44175444,20.3718 L5.22405499,29.0898 C5.11008313,29.9118 5.45799725,30.7158 6.13582995,31.1938 C6.51573618,31.4618 6.95762711,31.5958 7.40151755,31.5958 C7.74743217,31.5958 8.0973458,31.5138 8.41726683,31.3458 L15.7994447,27.4978 L23.1796231,31.3438 C23.9074435,31.7258 24.7872263,31.6698 25.465059,31.1938 C26.1408922,30.7158 26.4908059,29.9118 26.376834,29.0898 L25.157135,20.3718 L31.0096905,14.0798 C31.5595548,13.4898 31.7415099,12.6458 31.485573,11.8798"/>
    <path d="M47.185,15.3287032 C47.7150027,16.0537068 47.98,17.0661967 47.98,18.3662032 C47.98,19.1862073 47.8550013,19.9087001 47.605,20.5337032 C47.3549988,21.1587063 46.9950024,21.6437015 46.525,21.9887032 C46.0549976,22.3337049 45.5050032,22.5062032 44.875,22.5062032 C44.0449958,22.5062032 43.3450029,22.1562067 42.775,21.4562032 L42.64,22.3262032 L41.425,22.3262032 L41.425,11.2412032 L42.805,11.0762032 L42.805,15.4112032 C43.3750029,14.6311993 44.1199954,14.2412032 45.04,14.2412032 C45.9400045,14.2412032 46.6549974,14.6036996 47.185,15.3287032 Z M45.9775,20.6687032 C46.3225017,20.1737007 46.495,19.4062084 46.495,18.3662032 C46.495,17.2961979 46.3350016,16.5237056 46.015,16.0487032 C45.6949984,15.5737008 45.2400029,15.3362032 44.65,15.3362032 C43.9499965,15.3362032 43.3350026,15.7461991 42.805,16.5662032 L42.805,20.3462032 C43.0150011,20.6762049 43.2724985,20.9362023 43.5775,21.1262032 C43.8825015,21.3162042 44.2049983,21.4112032 44.545,21.4112032 C45.155003,21.4112032 45.6324983,21.1637057 45.9775,20.6687032 Z M55.8925,15.3512032 C56.5075031,16.0912069 56.815,17.0961969 56.815,18.3662032 C56.815,19.1862073 56.6750014,19.9087001 56.395,20.5337032 C56.1149986,21.1587063 55.7100026,21.6437015 55.18,21.9887032 C54.6499973,22.3337049 54.0200036,22.5062032 53.29,22.5062032 C52.1799944,22.5062032 51.3150031,22.1362069 50.695,21.3962032 C50.0749969,20.6561995 49.765,19.6512096 49.765,18.3812032 C49.765,17.5611991 49.9049986,16.8387063 50.185,16.2137032 C50.4650014,15.5887001 50.8699973,15.1037049 51.4,14.7587032 C51.9300026,14.4137015 52.5649963,14.2412032 53.305,14.2412032 C54.4150056,14.2412032 55.2774969,14.6111995 55.8925,15.3512032 Z M51.25,18.3812032 C51.25,20.3912133 51.9299932,21.3962032 53.29,21.3962032 C54.6500068,21.3962032 55.33,20.3862133 55.33,18.3662032 C55.33,16.3561932 54.6550067,15.3512032 53.305,15.3512032 C51.9349931,15.3512032 51.25,16.3611931 51.25,18.3812032 Z M64.6525,15.3512032 C65.2675031,16.0912069 65.575,17.0961969 65.575,18.3662032 C65.575,19.1862073 65.4350014,19.9087001 65.155,20.5337032 C64.8749986,21.1587063 64.4700026,21.6437015 63.94,21.9887032 C63.4099974,22.3337049 62.7800037,22.5062032 62.05,22.5062032 C60.9399945,22.5062032 60.0750031,22.1362069 59.455,21.3962032 C58.8349969,20.6561995 58.525,19.6512096 58.525,18.3812032 C58.525,17.5611991 58.6649986,16.8387063 58.945,16.2137032 C59.2250014,15.5887001 59.6299974,15.1037049 60.16,14.7587032 C60.6900027,14.4137015 61.3249963,14.2412032 62.065,14.2412032 C63.1750056,14.2412032 64.0374969,14.6111995 64.6525,15.3512032 Z M60.01,18.3812032 C60.01,20.3912133 60.6899932,21.3962032 62.05,21.3962032 C63.4100068,21.3962032 64.09,20.3862133 64.09,18.3662032 C64.09,16.3561932 63.4150068,15.3512032 62.065,15.3512032 C60.6949932,15.3512032 60.01,16.3611931 60.01,18.3812032 Z M69.235,22.3262032 L67.855,22.3262032 L67.855,11.2412032 L69.235,11.0762032 L69.235,22.3262032 Z M70.87,17.9162032 L74.11,22.3262032 L72.46,22.3262032 L69.325,18.0062032 L72.235,14.4212032 L73.78,14.4212032 L70.87,17.9162032 Z M85.03,14.8937032 C85.4200019,15.3287054 85.615,15.9161995 85.615,16.6562032 L85.615,22.3262032 L84.235,22.3262032 L84.235,16.8512032 C84.235,15.8311981 83.8650037,15.3212032 83.125,15.3212032 C82.7349981,15.3212032 82.4050013,15.4337021 82.135,15.6587032 C81.8649986,15.8837043 81.5750015,16.2362008 81.265,16.7162032 L81.265,22.3262032 L79.885,22.3262032 L79.885,16.8512032 C79.885,15.8311981 79.5150037,15.3212032 78.775,15.3212032 C78.374998,15.3212032 78.0400013,15.4362021 77.77,15.6662032 C77.4999986,15.8962044 77.2150015,16.2462009 76.915,16.7162032 L76.915,22.3262032 L75.535,22.3262032 L75.535,14.4212032 L76.72,14.4212032 L76.84,15.5762032 C77.430003,14.6861988 78.1899954,14.2412032 79.12,14.2412032 C79.6100024,14.2412032 80.0274983,14.366202 80.3725,14.6162032 C80.7175017,14.8662045 80.9649993,15.216201 81.115,15.6662032 C81.4250015,15.2062009 81.7674981,14.8537044 82.1425,14.6087032 C82.5175019,14.363702 82.9599975,14.2412032 83.47,14.2412032 C84.1200032,14.2412032 84.6399981,14.458701 85.03,14.8937032 Z M93.88,21.1937032 C93.9900005,21.348704 94.1549989,21.4662028 94.375,21.5462032 L94.06,22.5062032 C93.6499979,22.456203 93.3200012,22.3412041 93.07,22.1612032 C92.8199987,21.9812023 92.6350006,21.7012051 92.515,21.3212032 C91.9849974,22.1112072 91.2000052,22.5062032 90.16,22.5062032 C89.3799961,22.5062032 88.7650022,22.2862054 88.315,21.8462032 C87.8649978,21.406201 87.64,20.8312068 87.64,20.1212032 C87.64,19.281199 87.942497,18.6362055 88.5475,18.1862032 C89.152503,17.736201 90.0099944,17.5112032 91.12,17.5112032 L92.335,17.5112032 L92.335,16.9262032 C92.335,16.3662004 92.2000013,15.9662044 91.93,15.7262032 C91.6599987,15.486202 91.2450028,15.3662032 90.685,15.3662032 C90.1049971,15.3662032 89.3950042,15.5062018 88.555,15.7862032 L88.21,14.7812032 C89.1900049,14.4212014 90.0999958,14.2412032 90.94,14.2412032 C91.8700046,14.2412032 92.5649977,14.4687009 93.025,14.9237032 C93.4850023,15.3787055 93.715,16.026199 93.715,16.8662032 L93.715,20.4812032 C93.715,20.8012048 93.7699995,21.0387024 93.88,21.1937032 Z M92.335,20.2412032 L92.335,18.4262032 L91.3,18.4262032 C89.8399927,18.4262032 89.11,18.9661978 89.11,20.0462032 C89.11,20.5162056 89.2249988,20.871202 89.455,21.1112032 C89.6850011,21.3512044 90.0249977,21.4712032 90.475,21.4712032 C91.2650039,21.4712032 91.8849977,21.0612073 92.335,20.2412032 Z M100.765,14.3312032 L100.51,15.6812032 C100.269999,15.6212029 100.040001,15.5912032 99.82,15.5912032 C99.3299976,15.5912032 98.9350015,15.7712014 98.635,16.1312032 C98.3349985,16.491205 98.1000009,17.0511994 97.93,17.8112032 L97.93,22.3262032 L96.55,22.3262032 L96.55,14.4212032 L97.735,14.4212032 L97.87,16.0262032 C98.0800011,15.4362003 98.3649982,14.9912047 98.725,14.6912032 C99.0850018,14.3912017 99.5049976,14.2412032 99.985,14.2412032 C100.265001,14.2412032 100.524999,14.2712029 100.765,14.3312032 Z M103.72,22.3262032 L102.34,22.3262032 L102.34,11.2412032 L103.72,11.0762032 L103.72,22.3262032 Z M105.355,17.9162032 L108.595,22.3262032 L106.945,22.3262032 L103.81,18.0062032 L106.72,14.4212032 L108.265,14.4212032 L105.355,17.9162032 Z M109.195,17.0462032 L113.44,17.0462032 L113.44,18.2162032 L109.195,18.2162032 L109.195,17.0462032 Z M119.6275,11.2112032 C119.972502,11.3012037 120.319998,11.4362023 120.67,11.6162032 L120.19,12.5762032 C119.669997,12.326202 119.115003,12.2012032 118.525,12.2012032 C117.994997,12.2012032 117.630001,12.2962023 117.43,12.4862032 C117.229999,12.6762042 117.13,12.9712012 117.13,13.3712032 L117.13,14.4212032 L121.54,14.4212032 L121.54,22.3262032 L120.16,22.3262032 L120.16,15.4862032 L117.13,15.4862032 L117.13,22.3262032 L115.75,22.3262032 L115.75,15.4862032 L114.49,15.4862032 L114.49,14.4212032 L115.75,14.4212032 L115.75,13.3862032 C115.75,12.6861997 115.974998,12.1262053 116.425,11.7062032 C116.875002,11.2862011 117.559995,11.0762032 118.48,11.0762032 C118.900002,11.0762032 119.282498,11.1212028 119.6275,11.2112032 Z M124.7575,22.0487032 C124.462499,21.7437017 124.315,21.316206 124.315,20.7662032 L124.315,11.2412032 L125.695,11.0762032 L125.695,20.7362032 C125.695,20.9562043 125.7325,21.1162027 125.8075,21.2162032 C125.8825,21.3162037 126.009999,21.3662032 126.19,21.3662032 C126.380001,21.3662032 126.549999,21.3362035 126.7,21.2762032 L127.06,22.2362032 C126.729998,22.4162041 126.365002,22.5062032 125.965,22.5062032 C125.454997,22.5062032 125.052501,22.3537047 124.7575,22.0487032 Z M129.1525,22.0487032 C128.857499,21.7437017 128.71,21.316206 128.71,20.7662032 L128.71,11.2412032 L130.09,11.0762032 L130.09,20.7362032 C130.09,20.9562043 130.1275,21.1162027 130.2025,21.2162032 C130.2775,21.3162037 130.404999,21.3662032 130.585,21.3662032 C130.775001,21.3662032 130.944999,21.3362035 131.095,21.2762032 L131.455,22.2362032 C131.124998,22.4162041 130.760002,22.5062032 130.36,22.5062032 C129.849997,22.5062032 129.447501,22.3537047 129.1525,22.0487032 Z M138.97,18.8462032 L133.93,18.8462032 C133.99,19.7162076 134.209998,20.3562012 134.59,20.7662032 C134.970002,21.1762053 135.459997,21.3812032 136.06,21.3812032 C136.440002,21.3812032 136.789998,21.3262038 137.11,21.2162032 C137.430002,21.1062027 137.764998,20.9312044 138.115,20.6912032 L138.715,21.5162032 C137.874996,22.1762065 136.955005,22.5062032 135.955,22.5062032 C134.854995,22.5062032 133.997503,22.1462068 133.3825,21.4262032 C132.767497,20.7061996 132.46,19.7162095 132.46,18.4562032 C132.46,17.6361991 132.592499,16.9087064 132.8575,16.2737032 C133.122501,15.6387 133.502498,15.141205 133.9975,14.7812032 C134.492502,14.4212014 135.074997,14.2412032 135.745,14.2412032 C136.795005,14.2412032 137.599997,14.5861998 138.16,15.2762032 C138.720003,15.9662067 139,16.9211971 139,18.1412032 C139,18.3712044 138.99,18.606202 138.97,18.8462032 Z M137.635,17.7362032 C137.635,16.9561993 137.480002,16.3612053 137.17,15.9512032 C136.859998,15.5412012 136.395003,15.3362032 135.775,15.3362032 C134.644994,15.3362032 134.03,16.1661949 133.93,17.8262032 L137.635,17.8262032 L137.635,17.7362032 Z M147.4,11.2412032 L147.4,22.3262032 L146.185,22.3262032 L146.05,21.2312032 C145.789999,21.6312052 145.465002,21.9437021 145.075,22.1687032 C144.684998,22.3937043 144.250002,22.5062032 143.77,22.5062032 C142.829995,22.5062032 142.097503,22.1362069 141.5725,21.3962032 C141.047497,20.6561995 140.785,19.6612095 140.785,18.4112032 C140.785,17.6011992 140.909999,16.8812064 141.16,16.2512032 C141.410001,15.6212001 141.769998,15.128705 142.24,14.7737032 C142.710002,14.4187014 143.259997,14.2412032 143.89,14.2412032 C144.700004,14.2412032 145.409997,14.5662 146.02,15.2162032 L146.02,11.0762032 L147.4,11.2412032 Z M145.15,21.1187032 C145.450001,20.9237022 145.739999,20.6312052 146.02,20.2412032 L146.02,16.3712032 C145.759999,16.0312015 145.482501,15.7737041 145.1875,15.5987032 C144.892499,15.4237023 144.560002,15.3362032 144.19,15.3362032 C143.579997,15.3362032 143.107502,15.5912007 142.7725,16.1012032 C142.437498,16.6112058 142.27,17.3711982 142.27,18.3812032 C142.27,19.4012083 142.424998,20.1612007 142.735,20.6612032 C143.045002,21.1612057 143.489997,21.4112032 144.07,21.4112032 C144.490002,21.4112032 144.849998,21.3137042 145.15,21.1187032 Z M151.36,20.7212032 C151.560001,20.9212042 151.66,21.1662018 151.66,21.4562032 C151.66,21.7462047 151.560001,21.9937022 151.36,22.1987032 C151.159999,22.4037042 150.910002,22.5062032 150.61,22.5062032 C150.319999,22.5062032 150.075001,22.4037042 149.875,22.1987032 C149.674999,21.9937022 149.575,21.7462047 149.575,21.4562032 C149.575,21.1662018 149.674999,20.9212042 149.875,20.7212032 C150.075001,20.5212022 150.319999,20.4212032 150.61,20.4212032 C150.910002,20.4212032 151.159999,20.5212022 151.36,20.7212032 Z M157.45,14.4662032 C157.880002,14.616204 158.289998,14.8412017 158.68,15.1412032 L158.095,16.0112032 C157.734998,15.7812021 157.392502,15.6112038 157.0675,15.5012032 C156.742498,15.3912027 156.400002,15.3362032 156.04,15.3362032 C155.589998,15.3362032 155.235001,15.4287023 154.975,15.6137032 C154.714999,15.7987041 154.585,16.0512016 154.585,16.3712032 C154.585,16.6912048 154.707499,16.9412023 154.9525,17.1212032 C155.197501,17.3012041 155.639997,17.4762024 156.28,17.6462032 C157.160004,17.8662043 157.817498,18.1662013 158.2525,18.5462032 C158.687502,18.9262051 158.905,19.4461999 158.905,20.1062032 C158.905,20.8862071 158.602503,21.4812012 157.9975,21.8912032 C157.392497,22.3012053 156.655004,22.5062032 155.785,22.5062032 C154.584994,22.5062032 153.590004,22.1612067 152.8,21.4712032 L153.535,20.6312032 C154.205003,21.1412058 154.944996,21.3962032 155.755,21.3962032 C156.275003,21.3962032 156.687498,21.2887043 156.9925,21.0737032 C157.297502,20.8587021 157.45,20.5662051 157.45,20.1962032 C157.45,19.9262019 157.395001,19.708704 157.285,19.5437032 C157.174999,19.3787024 156.985001,19.2337038 156.715,19.1087032 C156.444999,18.9837026 156.050003,18.8512039 155.53,18.7112032 C154.689996,18.4912021 154.082502,18.1962051 153.7075,17.8262032 C153.332498,17.4562014 153.145,16.9862061 153.145,16.4162032 C153.145,16.0062012 153.267499,15.6337049 153.5125,15.2987032 C153.757501,14.9637015 154.097498,14.7037041 154.5325,14.5187032 C154.967502,14.3337023 155.454997,14.2412032 155.995,14.2412032 C156.535003,14.2412032 157.019998,14.3162025 157.45,14.4662032 Z M163.825,22.3262032 L162.16,22.3262032 L159.43,14.4212032 L160.93,14.4212032 L163,21.0962032 L165.055,14.4212032 L166.51,14.4212032 L163.825,22.3262032 Z M174.46,14.7812032 C174.159998,14.8812037 173.830002,14.9462031 173.47,14.9762032 C173.109998,15.0062034 172.670003,15.0212032 172.15,15.0212032 C173.080005,15.4412053 173.545,16.1061987 173.545,17.0162032 C173.545,17.8062072 173.275003,18.4512007 172.735,18.9512032 C172.194997,19.4512057 171.460005,19.7012032 170.53,19.7012032 C170.169998,19.7012032 169.835002,19.6512037 169.525,19.5512032 C169.404999,19.6312036 169.31,19.7387025 169.24,19.8737032 C169.17,20.0087039 169.135,20.1462025 169.135,20.2862032 C169.135,20.7162054 169.479997,20.9312032 170.17,20.9312032 L171.43,20.9312032 C171.960003,20.9312032 172.429998,21.0262023 172.84,21.2162032 C173.250002,21.4062042 173.567499,21.6662016 173.7925,21.9962032 C174.017501,22.3262049 174.13,22.7012011 174.13,23.1212032 C174.13,23.8912071 173.815003,24.4837011 173.185,24.8987032 C172.554997,25.3137053 171.635006,25.5212032 170.425,25.5212032 C169.574996,25.5212032 168.902502,25.4337041 168.4075,25.2587032 C167.912498,25.0837023 167.560001,24.821205 167.35,24.4712032 C167.139999,24.1212015 167.035,23.671206 167.035,23.1212032 L168.28,23.1212032 C168.28,23.4412048 168.339999,23.6937023 168.46,23.8787032 C168.580001,24.0637041 168.794998,24.2037027 169.105,24.2987032 C169.415002,24.3937037 169.854997,24.4412032 170.425,24.4412032 C171.255004,24.4412032 171.847498,24.3387042 172.2025,24.1337032 C172.557502,23.9287022 172.735,23.6212053 172.735,23.2112032 C172.735,22.8412014 172.595001,22.5612042 172.315,22.3712032 C172.034999,22.1812023 171.645002,22.0862032 171.145,22.0862032 L169.9,22.0862032 C169.229997,22.0862032 168.722502,21.9437046 168.3775,21.6587032 C168.032498,21.3737018 167.86,21.0162054 167.86,20.5862032 C167.86,20.3262019 167.934999,20.0762044 168.085,19.8362032 C168.235001,19.596202 168.449999,19.3812042 168.73,19.1912032 C168.269998,18.951202 167.932501,18.653705 167.7175,18.2987032 C167.502499,17.9437014 167.395,17.5112058 167.395,17.0012032 C167.395,16.4712006 167.527499,15.9962053 167.7925,15.5762032 C168.057501,15.1562011 168.422498,14.8287044 168.8875,14.5937032 C169.352502,14.358702 169.869997,14.2412032 170.44,14.2412032 C171.060003,14.2512033 171.579998,14.2287035 172,14.1737032 C172.420002,14.1187029 172.767499,14.0437037 173.0425,13.9487032 C173.317501,13.8537027 173.654998,13.7162041 174.055,13.5362032 L174.46,14.7812032 Z M169.2325,15.7187032 C168.947499,16.0437048 168.805,16.4712006 168.805,17.0012032 C168.805,17.5412059 168.949999,17.9737016 169.24,18.2987032 C169.530001,18.6237048 169.939997,18.7862032 170.47,18.7862032 C171.010003,18.7862032 171.422499,18.6287048 171.7075,18.3137032 C171.992501,17.9987016 172.135,17.5562061 172.135,16.9862032 C172.135,15.8161974 171.570006,15.2312032 170.44,15.2312032 C169.919997,15.2312032 169.517501,15.3937016 169.2325,15.7187032 Z"/>
  </g>
</svg>

<svg xmlns="http://www.w3.org/2000/svg" style="background:#fff" viewBox="0 0 300 96"><g fill="#0C0C0D" fill-rule="evenodd" transform="translate(46 32)"><path fill-opacity=".8" d="M31.49 11.88a2.2 2.2 0 0 0-1.7-1.47l-8.17-1.45-3.85-7.74A2.18 2.18 0 0 0 15.8 0c-.84 0-1.6.47-1.97 1.22L9.98 8.96 1.82 10.4A2.2 2.2 0 0 0 .6 14.08l5.85 6.3-1.22 8.71a2.2 2.2 0 0 0 3.2 2.26l7.38-3.85 7.38 3.84a2.2 2.2 0 0 0 3.2-2.25l-1.22-8.72L31 14.08a2.2 2.2 0 0 0 .48-2.2"/><path d="M47.19 15.33c.53.72.79 1.74.79 3.04a5.8 5.8 0 0 1-.38 2.16A3.25 3.25 0 0 1 46.52 22c-.47.34-1.01.52-1.65.52-.83 0-1.52-.35-2.1-1.05l-.13.87h-1.22V11.24l1.38-.16v4.33a2.65 2.65 0 0 1 2.24-1.17c.9 0 1.61.36 2.15 1.09zm-1.21 5.34c.34-.5.52-1.26.52-2.3 0-1.07-.16-1.85-.48-2.32a1.55 1.55 0 0 0-1.37-.71c-.7 0-1.31.4-1.84 1.23v3.78c.2.33.46.59.77.78.3.19.62.28.97.28.6 0 1.08-.25 1.43-.74zm9.91-5.32c.62.74.92 1.75.92 3.02 0 .82-.13 1.54-.41 2.16A3.3 3.3 0 0 1 55.18 22c-.53.34-1.16.52-1.89.52a3.2 3.2 0 0 1-2.6-1.11 4.55 4.55 0 0 1-.92-3.02c0-.82.13-1.54.41-2.17a3.3 3.3 0 0 1 1.22-1.45 3.41 3.41 0 0 1 1.9-.52c1.12 0 1.98.37 2.6 1.11zm-4.64 3.03c0 2.01.68 3.02 2.04 3.02 1.36 0 2.04-1.01 2.04-3.03 0-2.01-.67-3.02-2.02-3.02-1.38 0-2.06 1.01-2.06 3.03zm13.4-3.03c.62.74.92 1.75.92 3.02 0 .82-.13 1.54-.41 2.16A3.3 3.3 0 0 1 63.94 22c-.53.34-1.16.52-1.89.52a3.2 3.2 0 0 1-2.6-1.11 4.55 4.55 0 0 1-.93-3.02c0-.82.14-1.54.42-2.17a3.3 3.3 0 0 1 1.22-1.45 3.41 3.41 0 0 1 1.9-.52c1.12 0 1.98.37 2.6 1.11zm-4.64 3.03c0 2.01.68 3.02 2.04 3.02 1.36 0 2.04-1.01 2.04-3.03 0-2.01-.67-3.02-2.03-3.02-1.37 0-2.05 1.01-2.05 3.03zm9.23 3.95h-1.38V11.24l1.38-.16v11.25zm1.63-4.41l3.24 4.4h-1.65l-3.13-4.31 2.9-3.59h1.55l-2.91 3.5zm14.16-3.03c.39.44.58 1.03.58 1.77v5.67h-1.38v-5.48c0-1.02-.36-1.53-1.1-1.53-.4 0-.72.11-1 .34-.27.22-.55.58-.86 1.06v5.6h-1.38v-5.47c0-1.02-.37-1.53-1.11-1.53-.4 0-.74.12-1.01.35-.27.23-.55.58-.85 1.05v5.6h-1.39v-7.9h1.19l.12 1.16c.59-.9 1.35-1.34 2.28-1.34.49 0 .9.13 1.25.38s.6.6.74 1.05c.32-.46.66-.82 1.03-1.06.38-.25.82-.37 1.33-.37a2 2 0 0 1 1.56.65zm8.85 6.3a1 1 0 0 0 .5.36l-.32.96a2.1 2.1 0 0 1-.99-.35 1.58 1.58 0 0 1-.55-.84 2.65 2.65 0 0 1-2.36 1.19c-.78 0-1.4-.22-1.84-.66a2.3 2.3 0 0 1-.68-1.73c0-.84.3-1.48.9-1.93.61-.45 1.47-.68 2.58-.68h1.21v-.58c0-.56-.13-.96-.4-1.2s-.68-.36-1.25-.36c-.58 0-1.28.14-2.13.42l-.34-1a7.96 7.96 0 0 1 2.73-.55c.93 0 1.62.23 2.09.68.46.46.69 1.1.69 1.95v3.61c0 .32.05.56.16.71zm-1.55-.95v-1.81H91.3c-1.46 0-2.19.54-2.19 1.62 0 .47.11.82.34 1.06.24.24.57.36 1.02.36.8 0 1.41-.4 1.86-1.23zm8.44-5.9l-.26 1.34a2.84 2.84 0 0 0-.69-.09c-.49 0-.88.18-1.18.54-.3.36-.54.92-.71 1.68v4.52h-1.38v-7.9h1.19l.13 1.6a3 3 0 0 1 .85-1.34c.37-.3.78-.45 1.27-.45.28 0 .53.03.78.1zm2.95 7.99h-1.38V11.24l1.38-.16v11.25zm1.64-4.41l3.23 4.4h-1.65l-3.13-4.31 2.91-3.59h1.55l-2.91 3.5zm3.83-.87h4.25v1.17h-4.25v-1.17zm10.44-5.84c.34.1.69.23 1.04.4l-.48.97a3.8 3.8 0 0 0-1.66-.38c-.54 0-.9.1-1.1.29-.2.19-.3.48-.3.88v1.05h4.41v7.9h-1.38V15.5h-3.03v6.84h-1.38v-6.84h-1.26v-1.07h1.26V13.4c0-.7.22-1.26.67-1.68.46-.42 1.14-.63 2.06-.63.42 0 .8.04 1.15.13zm5.13 10.84c-.3-.3-.45-.73-.45-1.28v-9.53l1.38-.16v9.66c0 .22.04.38.12.48.07.1.2.15.38.15.19 0 .36-.03.51-.1l.36.97c-.33.18-.7.27-1.1.27a1.6 1.6 0 0 1-1.2-.46zm4.4 0c-.3-.3-.45-.73-.45-1.28v-9.53l1.38-.16v9.66c0 .22.04.38.11.48.08.1.2.15.39.15s.35-.03.5-.1l.37.97c-.34.18-.7.27-1.1.27a1.6 1.6 0 0 1-1.2-.46zm9.81-3.2h-5.04c.06.87.28 1.5.66 1.92.38.4.87.61 1.47.61.38 0 .73-.05 1.05-.16.32-.11.65-.29 1-.53l.6.83c-.84.66-1.75.99-2.75.99a3.2 3.2 0 0 1-2.58-1.08 4.43 4.43 0 0 1-.92-2.97c0-.82.13-1.55.4-2.19.26-.63.64-1.13 1.14-1.49a2.9 2.9 0 0 1 1.75-.54c1.05 0 1.85.35 2.41 1.04.56.69.84 1.64.84 2.86 0 .23-.01.47-.03.7zm-1.34-1.11c0-.78-.15-1.38-.46-1.79-.31-.4-.77-.61-1.4-.61-1.13 0-1.74.83-1.84 2.49h3.7v-.1zm9.77-6.5v11.09h-1.22l-.13-1.1c-.26.4-.58.71-.98.94-.39.22-.82.34-1.3.34-.94 0-1.67-.37-2.2-1.11a5.06 5.06 0 0 1-.78-2.99c0-.8.12-1.53.37-2.16.25-.63.61-1.12 1.08-1.48a2.84 2.84 0 0 1 3.78.44v-4.13l1.38.16zm-2.25 9.88c.3-.2.59-.49.87-.88v-3.87c-.26-.34-.54-.6-.83-.77-.3-.18-.63-.26-1-.26a1.6 1.6 0 0 0-1.42.76c-.33.51-.5 1.27-.5 2.28 0 1.02.15 1.78.47 2.28.3.5.75.75 1.33.75.42 0 .78-.1 1.08-.3zm6.21-.4c.2.2.3.45.3.74s-.1.53-.3.74a1 1 0 0 1-.75.3.99.99 0 0 1-.74-.3c-.2-.2-.3-.45-.3-.74a1 1 0 0 1 .3-.74 1 1 0 0 1 .74-.3c.3 0 .55.1.75.3zm6.09-6.25c.43.15.84.37 1.23.67l-.59.87c-.36-.23-.7-.4-1.02-.5a3.18 3.18 0 0 0-1.03-.17c-.45 0-.8.09-1.06.27a.88.88 0 0 0-.4.76c0 .32.13.57.37.75.25.18.69.36 1.33.53.88.22 1.54.52 1.97.9.44.38.66.9.66 1.56 0 .78-.3 1.37-.91 1.78-.6.41-1.34.62-2.22.62-1.2 0-2.19-.35-2.98-1.04l.73-.84c.68.51 1.41.77 2.22.77.53 0 .94-.11 1.24-.33.3-.21.46-.5.46-.87 0-.27-.05-.5-.16-.66-.12-.16-.3-.3-.57-.43a7.82 7.82 0 0 0-1.19-.4 4.04 4.04 0 0 1-1.82-.88 1.9 1.9 0 0 1-.56-1.41c0-.41.12-.79.36-1.12.25-.34.59-.6 1.02-.78a4.4 4.4 0 0 1 2.92-.05zm6.38 7.86h-1.67l-2.73-7.9h1.5L163 21.1l2.06-6.68h1.45l-2.69 7.9zm10.63-7.55c-.3.1-.63.17-.99.2s-.8.04-1.32.04c.93.42 1.4 1.09 1.4 2 0 .79-.27 1.43-.81 1.93-.55.5-1.28.75-2.21.75-.36 0-.7-.05-1-.15a.85.85 0 0 0-.29.32.89.89 0 0 0-.1.42c0 .43.34.64 1.03.64h1.26c.53 0 1 .1 1.41.29.41.19.73.45.95.78.23.33.34.7.34 1.12a2 2 0 0 1-.94 1.78c-.64.41-1.55.62-2.76.62-.86 0-1.53-.09-2.02-.26-.5-.18-.85-.44-1.06-.79a2.6 2.6 0 0 1-.31-1.35h1.24c0 .32.06.57.18.76.12.18.33.32.64.42.32.1.75.14 1.33.14.83 0 1.42-.1 1.77-.3a1 1 0 0 0 .54-.93.95.95 0 0 0-.43-.84 2.07 2.07 0 0 0-1.16-.28h-1.25c-.67 0-1.18-.15-1.52-.43a1.33 1.33 0 0 1-.52-1.07c0-.26.07-.51.22-.75.16-.24.37-.46.65-.65-.46-.24-.8-.54-1.01-.9a2.46 2.46 0 0 1-.32-1.29 2.61 2.61 0 0 1 1.49-2.4 3.4 3.4 0 0 1 1.55-.36c.62.01 1.14-.01 1.56-.07a5.4 5.4 0 0 0 1.04-.22c.28-.1.61-.23 1.02-.41l.4 1.24zm-5.23.94c-.28.32-.42.75-.42 1.28 0 .54.14.97.43 1.3.29.32.7.49 1.23.49.54 0 .95-.16 1.24-.48.28-.31.42-.75.42-1.32 0-1.17-.56-1.76-1.69-1.76-.52 0-.92.16-1.2.49z"/></g></svg>
